X:1
T:Deh qual virtute
T:Dhe qual virtude
T:Gioan Felice Sances
T:Source : Capricci poetici---Venetia---A.Gardano---1649. Editor : André Vierendeels (12/05/15).
T:Notes : Original clefs : C1, F4 Figures in BC are notated in original print
C:Gioan Felice Sances
%%score 1 2
L:1/8
Q:1/4=76
M:4/4
K:F
V:1 treble nm="Soprano" snm="S"
V:2 bass nm="BC" snm="BC"
V:1
 z2 d4 Ac | B2 A2 A2 A>G | A2 A2 z AEG | F2 DA d3 c | B2 A2 G4 | F4 z fc_e | d2 cd B3 A | %7
w: Dhe qual vir-|tu- de fil- li si|chiu- de nel mio splen-|do- re di far be-|a- to'un co-|re, nel tuo splen-|do- re di far be-|
w: Io mi- ro'ac-|col- to den- tro'al tuo|vol- to splen- dor ch'ac-|cen- de- e den- tro'il|sen mi scen-|de, splen- dor ch'ac-|cen- de e den- tro'il|
w: Lie- to ri-|man- go tal ho- ra'e|pian- go lan- guir mi|sen- to e pur non|ho tor- men-|to, lan- guir mi|sen- to e pur non|
 A2 A2 A4 | G8 :: GA Bc d3 F | GA Bc A2 A=B | c2 c2 c3 =B | c2 EF G2 G2 | G3 ^F G2 Bc | %14
w: a- to'un co-|re.|Che _ se _ vol- go|gl'io _ ch'in _ te io vi|tro- vo'un non so-|che, io vi tro- vo'un|non so che, io vi|
w: sen mi scen-|de.|E- * se _ poi la|tua _ bel- * ta da me|lun- gi'ogn' hor sen|va, da me lun- gi'ogn'|hor sen va, da me|
w: ho tor- men-|to.|Dal _ lo _ stral che|mi _ fe- * ri pun- ta|l'al- ma'e not- t'e|di- pun- ta'e l'al- ma|not- t'e di pun- ta'e|
 d2 d2 d3 c | d2 f4 gf | _e2 fe d2 ed | d_e cd B2 DE | F2 F2 F3 E | F2 A=B c2 c2 | c3 =B c2 E^F | %21
w: tro- vo'un non so|che, mi pia- *|c'e- ma- le- det- ta'o- *|vun- * que _ vo, ma _|quel che sia non|so, ma _ quel che|sia non so,- ma _|
w: lun- gi'ogn' hor sen|va, re- sta'il *|fo- co nel cor che _|m'in _ pia- * go, ma _|quel che sia non|so, * * * *||
w: l'al- ma'e not- t'e|di, con gran _|duo- l'ond- ogn- hor lan _|guen- * do _ vo, ma _|quel che sia non|so, * * * *||
 G2 G2 G3 ^F | G2 Bc d2 d2 | d3 c d2 f2- | f2 gf _e2 fe | d2 _ed d2 c2 | B2 DE F2 F2 | %27
w: quel che sia non|so, ma _ quel che|sia non so, che|* mi _ pia- c'e m'al-|let- ta'o- * vun- que|vo ma _ quel che|
w: ||||||
w: ||||||
 F3 E F2 A=B | c2 c2 c3 =B | c2 E^F G2 G2 | G3 ^F G2 Bc | d2 d2 d3 c | d4 z2 f2 | _ed cB A3 G | %34
w: sia non so, ma _|quel che sia non|so, ma _ quel che|sia non so, ma _|quel che sia non|so, ma|quel _ che _ sia non|
w: |||||||
w: |||||||
 G8 :| %35
w: so.|
w: |
w: |
V:2
 G,4 ^F,4 | G,2 F,2 _E,4 | D,4 ^C,4 | D,3 C, B,,2 A,,2 | G,,2 A,,2 B,,2 C,2 | F,3 G, A,4 | %6
 B,2 A,2 G,2 F,2 | _E,2 C,2 D,4 | G,,8 :: G,3 A, B,2 A,2 | G,2 C,2 F,4 |"^7 6" E,4 D,4 | %12
"^6" C,4 B,,4 | A,,4 G,,2 G,2 | F,4 _E,4 | D,3 C, =B,,4 |"^b" C,2 A,,2 B,,2 _E,2 | F,4 B,,4 | %18
"^7 6" A,,4 G,,4 | F,,2 F,2 E,4 | D,4 C,4 | B,,4 A,,4 | G,,2 G,2 F,4 | _E,4 D,3 C, | %24
"^b" =B,,4 C,2 A,,2 | B,,2 _E,2 F,4 | B,,4 A,,4 | G,,4 F,,2 F,2 | E,4 D,4 | C,4 B,,4 | %30
"^7  6" A,,4 G,,2 G,2 | F,4 _E,4 |"^#" D,4 B,,4 | C,4 D,4 | G,,8 :| %35

